X: 1
T: Hambo
C: John Chambers (1975)
R: hambo-polska
N: My first try at writing a fake "traditional" hambo tune.
M: 3/4
L: 1/8
K: D
|: "D"D2 D>E F>G | A2 A>G F>G | A>^G A>B c>d | "A7"c2 {ed}c4 | e2 e>d c>d |
| e>f e>d c>B |1,3 A>B c>B A>G |  A>B A>G F>E :|2,4 "A7"A>B c>A B>c | "D"d2 d4 :|
|: "D"D2 D>F A>d | f2 f>e d>e | f>g f>e d>c | "A7"c2 {ed}c4 | e2 e>d c>d |
| e>f e>d c>B |1,3 A>B c>B A>G | A>B A>G F>E :|2,4 A>B c>A B>c |"D"d2 d4 :|
